X: 228
T: 229. Ich danke dir, o Gott, in deinem Throne
N: Derived from chor229.krn
C: Johann Sebastian Bach
%%abc-version 2.0
%%abcx-abcm2ps-target-version 5.9.1 (29 Sep 2008)
%%abc-creator hum2abc beta
%%abcx-conversion-date 2019/03/11 17:28:19
%%abc-edited-by Craig Stuart Sapp
%%humdrum-veritas 473767603
%%humdrum-veritas-data 157130305
%%
%%barnumbers 0
L: 1/4
M: C
%%staves [1 2 3 4]
V: 1 clef=treble
V: 2 clef=treble
V: 3 clef=treble-8
V: 4 clef=bass
K: Bb
[V:1] G [I:setbarnb 1]| 
[V:2] D | 
[V:3] B/c/ | 
[V:4] G,,/A,,/ | 
[V:1] GGF/E/D | 
[V:2] G/F/ E/D/C-C/B,/ | 
[V:3] dBA/G/F | 
[V:4] B,,G,,A,,B,,- | 
[V:1] FGAG | 
[V:2] DE/D/ED | 
[V:3] BBc3/B/ | 
[V:4] B,,/A,,/G,,-G,,/^F,,/G,, | 
[V:1] G^F!fermata!GB | 
[V:2] ED!fermata!DG | 
[V:3] A-A//B//c/- c/!fermata!B/d | 
[V:4] C,D,!fermata!G,,G,, | 
[V:1] AGFD | 
[V:2] G/^F/ G/E/CC/B,//C// | 
[V:3] d3//c//Bc/A/F | 
[V:4] D,E,A,,/F,,/B,,- | 
[V:1] FGAG | 
[V:2] D/C/B,E/D/=E | 
[V:3] B/A/GcB- | 
[V:4] B,,E,/D,/C,3/^C,/ | 
[V:1] G^F!fermata!Gd | 
[V:2] DD!fermata!DG | 
[V:3] B/A//G// A//B//c/!fermata!BB/c/ | 
[V:4] D,2!fermata!G,,G,,/A,,/ | 
[V:1] ddGc | 
[V:2] G3/^F/GG | 
[V:3] d/c//B// A/B//c//B2 | 
[V:4] B,,/C,/D,_E,=E, | 
[V:1] cBAG | 
[V:2] DD-D/C/ B,/D/ | 
[V:3] A3/G/- G/^F/ G/B/ | 
[V:4] ^F,G,D,_E, | 
[V:1] =F2!fermata!DG | 
[V:2] C/B,/C!fermata!B,D | 
[V:3] A/G/A!fermata!FB/c/ | 
[V:4] A,,F,,!fermata!B,,G,,/A,,/ | 
[V:1] G^FGF | 
[V:2] D/E/ D/C/ B,/C/D | 
[V:3] d/c//B//AGA | 
[V:4] B,,/C,/D,_E,D,/C,/ | 
[V:1] G^FGA | 
[V:2] DCDD | 
[V:3] GABA- | 
[V:4] B,,/C,/B,,/A,,/ G,,/A,,/G,,/^F,,/ | 
[V:1] B2!fermata!AB | 
[V:2] D2!fermata!DD | 
[V:3] AG!fermata!^FG- | 
[V:4] G,,/A,,/B,,/G,,/!fermata!D,G,, | 
[V:1] AG=FD/E/ | 
[V:2] D3//C//B,CB, | 
[V:3] G/^F/ G/E/ C/F/F | 
[V:4] D,E,A,,B,,/C,/ | 
[V:1] FFGF | 
[V:2] A,/B,//C// D//E//F/- F/E/- E/D/- | 
[V:3] F/G//A//BBB3//A// | 
[V:4] D,D,E,B,, | 
[V:1] E2!fermata!Dd | 
[V:2] D/C//=B,//C!fermata!B,G- | 
[V:3] G2!fermata!G_B | 
[V:4] C,/D,/ E,/C,/!fermata!G,G,, | 
[V:1] cBA^F | 
[V:2] G/^F/G-G/F//=E//D- | 
[V:3] cddA | 
[V:4] A,,B,,/C,/D,3/C,/ | 
[V:1] GA/B/cB | 
[V:2] D/=E/ ^F/G/A3/G/ | 
[V:3] Bc/d/ _e/d/d | 
[V:4] B,,A,,/G,,/^F,,G,, | 
[V:1] A2!fermata!G |]  
[V:2] G/^F//=E//F!fermata!D |]  
[V:3] e/c/ A/d/!fermata!=B |]  
[V:4] C,D,!fermata!G,, |]  



